img/icons/tik-tok.svg

<svg width="30" height="30" viewBox="0 0 30 30" fill="none" xmlns="http://www.w3.org/2000/svg">
<g clip-path="url(#clip0_56:840)">
<path d="M30.0007 15C30.0007 23.284 23.2847 30 15 30H14.9719C6.70051 29.9845 0 23.2729 0 15C0 6.72712 6.70051 0.0147849 14.9719 0H15C23.2847 0 30.0007 6.71381 30.0007 15Z" fill="black"/>
<path d="M14.9719 0V30C6.70051 29.9845 0 23.2729 0 15C0 6.72712 6.70051 0.0147849 14.9719 0Z" fill="#0C0C0C"/>
<path d="M23.162 10.8476L23.1435 13.9207C22.5446 13.9134 21.9489 13.8334 21.3693 13.6826C20.4751 13.4491 19.6318 13.0523 18.8817 12.5124C18.8817 12.8266 18.8862 13.2953 18.8862 13.8652C18.8862 14.6237 18.8862 15.0547 18.8817 15.5123C18.8684 18.3391 18.9387 18.8862 18.6903 20.0039C18.6386 20.2735 18.568 20.539 18.4789 20.7986C18.0013 22.1292 16.9604 23.1952 15.8996 23.7622C15.6036 23.9196 15.2929 24.0476 14.9719 24.1444C12.967 24.7521 10.5579 24.2183 9.31444 22.7399L9.30631 22.731L9.2967 22.7184C8.24032 21.444 8.00968 19.4569 7.9875 18.9483C7.9875 18.8832 7.98306 18.8196 7.98306 18.8196C7.96679 18.1249 8.06673 17.4323 8.27876 16.7705C8.49314 16.0859 9.19912 14.657 10.7848 13.7891C11.7737 13.2564 12.9025 13.0404 14.0183 13.1703L13.982 16.2803C13.9192 16.2641 12.4 15.9041 11.4028 16.939C10.4995 17.8764 10.5579 19.3866 11.1988 20.242C11.2328 20.2878 11.269 20.3321 11.3067 20.3735C11.6652 20.7735 12.1199 20.9235 12.4267 21.0285C12.8335 21.1625 13.2604 21.2251 13.6885 21.2133C14.1472 21.2062 14.5934 21.0628 14.9704 20.8016C16.0127 20.0934 16.1532 18.8322 16.1584 18.7605C16.1456 14.7006 16.1335 10.6407 16.1221 6.58072V6.57703L18.076 6.54228H18.1077L18.3909 6.53711C18.5997 7.28844 18.9535 7.99163 19.4325 8.60699C19.5834 8.79947 19.7463 8.98218 19.9204 9.15403C20.5779 9.79398 21.3677 10.282 22.2342 10.5837H22.2401C22.5407 10.6936 22.8488 10.7818 23.162 10.8476Z" fill="#FD2854"/>
<path d="M22.2786 12.2383H22.2726C21.2204 12.4069 20.1433 12.3251 19.1286 11.9995C18.4201 11.7692 17.755 11.4221 17.1608 10.9727C17.5171 13.1265 17.5171 15.3243 17.1608 17.4781C16.7387 20.0092 16.474 21.5957 15.0613 22.6106C15.0318 22.6321 15.0014 22.6535 14.9711 22.6735C13.0203 23.9945 10.2947 23.3388 9.29596 22.7171L9.28117 22.7082L9.25308 22.6905C8.92389 22.4724 8.6151 22.225 8.33051 21.9512C7.82034 21.4564 7.41324 20.8653 7.13271 20.2123C6.85218 19.5592 6.70376 18.8571 6.69604 18.1463C6.67705 17.4102 6.79926 16.6772 7.05605 15.987C7.22238 15.5435 7.84039 13.9659 9.56209 13.0056C10.6646 12.4011 11.9385 12.1855 13.1785 12.3935C13.1735 12.64 13.1689 12.8864 13.1644 13.1328V13.138L13.1356 14.6978C12.596 14.5706 12.0382 14.5396 11.4878 14.6061C11.0443 14.6608 10.6096 14.7118 10.1476 15.0023C9.55584 15.3832 9.13703 15.9809 8.98104 16.6671C8.88232 16.9995 8.86208 17.3502 8.9219 17.6917C8.93964 17.7893 9.06975 18.4672 9.61679 18.9536C9.80086 19.117 9.87922 19.1236 10.1476 19.3742C10.3841 19.596 10.4433 19.7025 10.6599 19.8865C10.6599 19.8865 10.7131 19.9316 10.8003 19.9952C10.8059 20 10.8118 20.0045 10.8181 20.0085C10.9373 20.0957 11.0626 20.1745 11.1929 20.2443C11.7347 20.5282 12.7046 20.5585 13.4158 20.2133C14.3997 19.735 14.9364 18.635 14.9342 17.9815C14.9223 13.9201 14.9103 9.85893 14.898 5.79802H14.966L17.9836 5.78027C17.9814 6.01565 18.014 6.25006 18.0804 6.4759C18.0878 6.5003 18.0952 6.52321 18.1033 6.54983C18.1114 6.57644 18.1166 6.58901 18.1233 6.60749C18.1701 6.73034 18.2241 6.85031 18.2852 6.96676L18.3273 7.05177V7.05843C18.3266 7.06034 18.3266 7.06243 18.3273 7.06434L18.334 7.07839L18.3406 7.09169C18.3446 7.10029 18.3491 7.10868 18.3539 7.11683C18.3584 7.12644 18.3635 7.13605 18.3687 7.14566C18.3968 7.19962 18.4352 7.27059 18.4788 7.35043C18.5062 7.39996 18.535 7.44949 18.5646 7.49828L18.5964 7.55076C18.6119 7.57738 18.6282 7.60399 18.6444 7.62986L18.7036 7.72375C18.9335 8.08671 19.3371 8.69807 19.9093 9.1601C20.7136 9.80915 21.6376 9.99249 22.2172 10.0472C22.2209 10.229 22.2253 10.4109 22.229 10.5928C22.2507 11.1418 22.2672 11.6903 22.2786 12.2383Z" fill="#24F6FA"/>
<path d="M22.2882 13.1069C20.7649 13.1628 19.2694 12.6892 18.056 11.7667V18.272C18.0412 18.5211 17.8232 21.2689 15.3408 22.7814C15.2181 22.8553 15.0946 22.9241 14.9711 22.9877C12.6359 24.1793 10.3538 23.2457 10.1284 23.1488C9.90417 23.0755 9.68932 22.9763 9.48818 22.8531C9.42534 22.8139 9.36398 22.7733 9.30558 22.7311L9.2531 22.692C7.73025 21.5358 7.66742 19.1806 7.65781 18.8331C7.64153 18.1383 7.74148 17.4457 7.95351 16.7839C8.20485 15.9818 8.95518 14.6298 10.4595 13.8026C11.2896 13.3508 12.2225 13.1216 13.1674 13.1372V13.1424C13.1551 13.9235 13.1428 14.7049 13.1304 15.4866C12.9715 15.4437 11.9972 15.1982 11.045 15.7978C10.4533 16.1787 10.0345 16.7763 9.8785 17.4626C9.78516 17.7956 9.76499 18.1448 9.81936 18.4864C9.90377 18.9081 10.1028 19.2985 10.3945 19.6145C10.5171 19.7557 10.6541 19.8838 10.8033 19.9967C10.8089 20.0015 10.8148 20.006 10.821 20.01C10.9382 20.1004 11.0637 20.1793 11.1958 20.2458L11.2003 20.2495C11.4644 20.6484 11.8455 20.9559 12.2912 21.1298C12.7369 21.3037 13.2255 21.3355 13.69 21.2209C13.9065 21.1757 14.1167 21.1047 14.3162 21.0094C14.5578 20.8945 14.7792 20.7412 14.9719 20.5555C15.72 19.8363 15.8294 18.8412 15.8346 18.7814L15.8021 6.59197L16.1273 6.58532L18.0811 6.54688H18.1092C18.1166 6.5661 18.1248 6.58532 18.1329 6.60454C18.178 6.7132 18.232 6.8337 18.2948 6.96381L18.3369 7.04882V7.05548C18.3362 7.05739 18.3362 7.05948 18.3369 7.06139L18.3436 7.07543L18.3502 7.08874C18.3542 7.09734 18.3587 7.10573 18.3635 7.11388C18.368 7.12349 18.3731 7.1331 18.3783 7.14271C18.4123 7.20924 18.4522 7.27799 18.4885 7.34748C18.5158 7.39701 18.5447 7.44653 18.5742 7.49533L18.606 7.54781L18.6541 7.62691L18.7132 7.72079C19.0514 8.24967 19.4566 8.73247 19.9189 9.15715C20.5935 9.77481 21.3785 10.2598 22.2327 10.5868H22.2387C22.2483 11.1346 22.2579 11.6839 22.2667 12.2317L22.2882 13.1069Z" fill="white"/>
<path opacity="0.17" d="M23.1621 10.8478L23.1436 13.9208C22.5447 13.9135 21.949 13.8336 21.3694 13.6828C20.4752 13.4492 19.6319 13.0525 18.8818 12.5126C18.8818 12.8267 18.8863 13.2954 18.8863 13.8654C18.8863 14.6238 18.8863 15.0548 18.8818 15.5124C18.8685 18.3393 18.9387 18.8863 18.6904 20.0041C18.6387 20.2736 18.568 20.5392 18.4789 20.7988C18.0014 22.1294 16.9605 23.1954 15.8997 23.7624C15.6037 23.9198 15.2929 24.0478 14.972 24.1446V5.79802L17.9896 5.78027C17.9874 6.01565 18.02 6.25006 18.0864 6.4759C18.0938 6.5003 18.1012 6.52321 18.1093 6.54983L18.3924 6.54465C18.6012 7.29598 18.9551 7.99917 19.434 8.61453C19.5849 8.80701 19.7479 8.98972 19.9219 9.16158C20.7262 9.81063 21.6503 9.99396 22.2299 10.0487C22.2336 10.2305 22.238 10.4124 22.2417 10.5942C22.5421 10.7005 22.8496 10.7852 23.1621 10.8478Z" fill="black"/>
</g>
<defs>
<clipPath id="clip0_56:840">
<rect width="30" height="30" fill="white"/>
</clipPath>
</defs>
</svg>

<?xml version="1.0" encoding="utf-8"?>
<!-- Generator: Adobe Illustrator 23.0.5, SVG Export Plug-In . SVG Version: 6.00 Build 0)  -->
<svg version="1.1" id="Слой_1" xmlns="http://www.w3.org/2000/svg" xmlns:xlink="http://www.w3.org/1999/xlink" x="0px" y="0px"
	 viewBox="0 0 30 30" enable-background="new 0 0 30 30" xml:space="preserve">
<g>
	<defs>
		<rect id="SVGID_1_" width="30" height="30"/>
	</defs>
	<clipPath id="SVGID_2_">
		<use xlink:href="#SVGID_1_"  overflow="visible"/>
	</clipPath>
	<g clip-path="url(#SVGID_2_)">
		<path d="M30,15c0,8.3-6.7,15-15,15h0C6.7,30,0,23.3,0,15C0,6.7,6.7,0,15,0h0C23.3,0,30,6.7,30,15z"/>
		<path fill="#0C0C0C" d="M15,0v30C6.7,30,0,23.3,0,15C0,6.7,6.7,0,15,0z"/>
		<path fill="#FD2854" d="M23.2,10.8l0,3.1c-0.6,0-1.2-0.1-1.8-0.2c-0.9-0.2-1.7-0.6-2.5-1.2c0,0.3,0,0.8,0,1.4c0,0.8,0,1.2,0,1.6
			c0,2.8,0.1,3.4-0.2,4.5c-0.1,0.3-0.1,0.5-0.2,0.8c-0.5,1.3-1.5,2.4-2.6,3c-0.3,0.2-0.6,0.3-0.9,0.4c-2,0.6-4.4,0.1-5.7-1.4l0,0
			l0,0C8.2,21.4,8,19.5,8,18.9c0-0.1,0-0.1,0-0.1c0-0.7,0.1-1.4,0.3-2c0.2-0.7,0.9-2.1,2.5-3c1-0.5,2.1-0.7,3.2-0.6l0,3.1
			c-0.1,0-1.6-0.4-2.6,0.7c-0.9,0.9-0.8,2.4-0.2,3.3c0,0,0.1,0.1,0.1,0.1c0.4,0.4,0.8,0.5,1.1,0.7c0.4,0.1,0.8,0.2,1.3,0.2
			c0.5,0,0.9-0.2,1.3-0.4c1-0.7,1.2-2,1.2-2c0-4.1,0-8.1,0-12.2v0l2,0h0l0.3,0c0.2,0.8,0.6,1.5,1,2.1c0.2,0.2,0.3,0.4,0.5,0.5
			c0.7,0.6,1.4,1.1,2.3,1.4h0C22.5,10.7,22.8,10.8,23.2,10.8z"/>
		<path fill="#24F6FA" d="M22.3,12.2L22.3,12.2c-1.1,0.2-2.1,0.1-3.2-0.2c-0.7-0.2-1.4-0.6-2-1c0.4,2.2,0.4,4.4,0,6.5
			c-0.4,2.5-0.7,4.1-2.1,5.1c0,0-0.1,0-0.1,0.1c-2,1.3-4.7,0.7-5.7,0l0,0l0,0c-0.3-0.2-0.6-0.5-0.9-0.7c-0.5-0.5-0.9-1.1-1.2-1.7
			c-0.3-0.7-0.4-1.4-0.4-2.1c0-0.7,0.1-1.5,0.4-2.2c0.2-0.4,0.8-2,2.5-3c1.1-0.6,2.4-0.8,3.6-0.6c0,0.2,0,0.5,0,0.7v0l0,1.6
			c-0.5-0.1-1.1-0.2-1.6-0.1c-0.4,0.1-0.9,0.1-1.3,0.4c-0.6,0.4-1,1-1.2,1.7c-0.1,0.3-0.1,0.7-0.1,1c0,0.1,0.1,0.8,0.7,1.3
			c0.2,0.2,0.3,0.2,0.5,0.4c0.2,0.2,0.3,0.3,0.5,0.5c0,0,0.1,0,0.1,0.1c0,0,0,0,0,0c0.1,0.1,0.2,0.2,0.4,0.2c0.5,0.3,1.5,0.3,2.2,0
			c1-0.5,1.5-1.6,1.5-2.2c0-4.1,0-8.1,0-12.2H15l3,0c0,0.2,0,0.5,0.1,0.7c0,0,0,0,0,0.1c0,0,0,0,0,0.1c0,0.1,0.1,0.2,0.2,0.4l0,0.1
			v0c0,0,0,0,0,0l0,0l0,0c0,0,0,0,0,0c0,0,0,0,0,0c0,0.1,0.1,0.1,0.1,0.2c0,0,0.1,0.1,0.1,0.1l0,0.1c0,0,0,0.1,0,0.1l0.1,0.1
			c0.2,0.4,0.6,1,1.2,1.4c0.8,0.6,1.7,0.8,2.3,0.9c0,0.2,0,0.4,0,0.5C22.3,11.1,22.3,11.7,22.3,12.2z"/>
		<path fill="#FFFFFF" d="M22.3,13.1c-1.5,0.1-3-0.4-4.2-1.3v6.5c0,0.2-0.2,3-2.7,4.5c-0.1,0.1-0.2,0.1-0.4,0.2
			c-2.3,1.2-4.6,0.3-4.8,0.2c-0.2-0.1-0.4-0.2-0.6-0.3c-0.1,0-0.1-0.1-0.2-0.1l-0.1,0c-1.5-1.2-1.6-3.5-1.6-3.9c0-0.7,0.1-1.4,0.3-2
			c0.3-0.8,1-2.2,2.5-3c0.8-0.5,1.8-0.7,2.7-0.7v0c0,0.8,0,1.6,0,2.3c-0.2,0-1.1-0.3-2.1,0.3c-0.6,0.4-1,1-1.2,1.7
			c-0.1,0.3-0.1,0.7-0.1,1c0.1,0.4,0.3,0.8,0.6,1.1c0.1,0.1,0.3,0.3,0.4,0.4c0,0,0,0,0,0c0.1,0.1,0.2,0.2,0.4,0.2l0,0
			c0.3,0.4,0.6,0.7,1.1,0.9c0.4,0.2,0.9,0.2,1.4,0.1c0.2,0,0.4-0.1,0.6-0.2c0.2-0.1,0.5-0.3,0.7-0.5c0.7-0.7,0.9-1.7,0.9-1.8l0-12.2
			l0.3,0l2,0h0c0,0,0,0,0,0.1c0,0.1,0.1,0.2,0.2,0.4l0,0.1v0c0,0,0,0,0,0l0,0l0,0c0,0,0,0,0,0c0,0,0,0,0,0c0,0.1,0.1,0.1,0.1,0.2
			c0,0,0.1,0.1,0.1,0.1l0,0.1l0,0.1l0.1,0.1c0.3,0.5,0.7,1,1.2,1.4c0.7,0.6,1.5,1.1,2.3,1.4h0c0,0.5,0,1.1,0,1.6L22.3,13.1z"/>
		<path opacity="0.17" enable-background="new    " d="M23.2,10.8l0,3.1c-0.6,0-1.2-0.1-1.8-0.2c-0.9-0.2-1.7-0.6-2.5-1.2
			c0,0.3,0,0.8,0,1.4c0,0.8,0,1.2,0,1.6c0,2.8,0.1,3.4-0.2,4.5c-0.1,0.3-0.1,0.5-0.2,0.8c-0.5,1.3-1.5,2.4-2.6,3
			c-0.3,0.2-0.6,0.3-0.9,0.4V5.8l3,0c0,0.2,0,0.5,0.1,0.7c0,0,0,0,0,0.1l0.3,0c0.2,0.8,0.6,1.5,1,2.1c0.2,0.2,0.3,0.4,0.5,0.5
			c0.8,0.6,1.7,0.8,2.3,0.9c0,0.2,0,0.4,0,0.5C22.5,10.7,22.8,10.8,23.2,10.8z"/>
	</g>
</g>
</svg>
